brandFactory_export/3.Masa/Cuidar_3Masa.svg

<?xml version="1.0" encoding="UTF-8"?>
<svg width="24px" height="24px" viewBox="0 0 24 24" version="1.1" xmlns="http://www.w3.org/2000/svg" xmlns:xlink="http://www.w3.org/1999/xlink">
    <title>3.Masa/Cuidar_3Masa</title>
    <g id="Symbols" stroke="none" stroke-width="1" fill="none" fill-rule="evenodd">
        <g id="3.Masa/Cuidar_3Masa" fill="#5CB615" fill-rule="nonzero">
            <path d="M21.7378151,17.9798319 C22.2487395,17.6504202 22.2689076,17.4588235 22.0470588,17.0420168 C21.8689076,16.6823529 21.4521008,16.5142857 21.0756303,16.6453782 L16.4336134,18.2588235 C16.3764706,18.2789916 16.3294118,18.2689076 16.2789916,18.2789916 C15.9394958,18.497479 15.5462185,18.6184874 15.1394958,18.6252101 L9.32436975,18.6252101 C8.92436975,18.6252101 8.60168067,18.302521 8.60168067,17.902521 L8.60168067,17.8991597 C8.60168067,17.492437 8.9210084,17.1731092 9.32436975,17.1731092 L15.1428571,17.1731092 C15.5092437,17.1731092 15.902521,16.7798319 15.902521,16.4 C15.902521,16.0537815 15.7008403,15.6941176 15.297479,15.6840336 C15.210084,15.6840336 15.1058824,15.6840336 14.9781513,15.6941176 C14.0134454,15.7142857 11.9932773,15.7512605 10.1042017,14.5714286 C10.0840336,14.5647059 9.11932773,14.0033613 6,13.9260504 L6,19.1731092 L11.5294118,21.8352941 C11.9327731,22.0672269 12.4168067,22.1747899 13.005042,22.1747899 C13.4957983,22.1747899 13.9193277,22.097479 14.2554622,21.9529412 C14.2857143,21.9327731 19.9764706,19.092437 21.7378151,17.9798319 L21.7378151,17.9798319 Z M23.3378151,16.3865546 C23.6672269,17.0252101 24.0134454,18.2521008 22.507563,19.210084 C20.6857143,20.3596639 15.1092437,23.1428571 14.8705882,23.2571429 C14.3226891,23.5092437 13.7042017,23.6268908 13.0016807,23.6268908 C12.1546218,23.6268908 11.4319328,23.4621849 10.8537815,23.1226891 L6,20.7831933 L6,21.2470588 C6,22.1915966 5.2302521,22.9579832 4.28571429,22.9579832 L1.71428571,22.9579832 C0.769747899,22.9579832 0,22.1915966 0,21.2470588 L0,13.3109244 C0,12.3630252 0.769747899,11.589916 1.71428571,11.589916 L4.28571429,11.589916 C4.93109244,11.589916 5.4789916,11.9495798 5.77815126,12.4773109 C9.48571429,12.5344538 10.692437,13.2201681 10.8941176,13.3546218 C12.3966387,14.292437 14.0436975,14.2621849 14.9478992,14.2453782 C15.092437,14.2352941 15.2268908,14.2453782 15.3243697,14.2352941 C15.892437,14.2453782 16.4033613,14.487395 16.7596639,14.8806723 C17.1260504,15.2672269 17.3478992,15.7983193 17.3478992,16.4 L20.6016807,15.2705882 C21.6201681,14.9109244 22.7495798,15.3344538 23.2806723,16.2756303 C23.2907563,16.2789916 23.3378151,16.3764706 23.3378151,16.3865546 Z M2.97478992,13.8319328 C2.47394958,13.8319328 2.11764706,14.1915966 2.11764706,14.692437 C2.11764706,15.1932773 2.47394958,15.5529412 2.97478992,15.5529412 C3.47563025,15.5529412 3.83193277,15.1966387 3.83193277,14.692437 C3.83529412,14.1915966 3.4789916,13.8319328 2.97478992,13.8319328 Z M15.6537815,13.1865546 C11.4184874,13.1865546 9.08235294,10.8470588 9.08235294,6.59495798 C9.08235294,2.34285714 11.4151261,0 15.6537815,0 C19.892437,0 22.2285714,2.34285714 22.2285714,6.59495798 C22.2252101,10.8436975 19.892437,13.1865546 15.6537815,13.1865546 L15.6537815,13.1865546 Z M12.7798319,6.15798319 L14.594958,6.15798319 C14.9411765,6.15798319 15.2201681,5.87563025 15.2201681,5.52941176 L15.2201681,3.70756303 L16.0907563,3.70756303 L16.0907563,5.52941176 C16.0907563,5.87563025 16.3731092,6.15462185 16.7193277,6.15798319 L18.5344538,6.15798319 L18.5344538,7.02857143 L16.7193277,7.02857143 C16.3731092,7.02857143 16.0941176,7.31092437 16.0941176,7.65714286 L16.0941176,9.4789916 L15.2235294,9.4789916 L15.2235294,7.65714286 C15.2235294,7.31092437 14.9445378,7.02857143 14.5983193,7.02857143 L12.7831933,7.03193277 L12.7798319,6.15798319 L12.7798319,6.15798319 Z M12.5210084,8.28907563 L13.9663866,8.28571429 L13.9663866,9.73109244 C13.9663866,10.2756303 14.389916,10.7327731 14.887395,10.7327731 L16.4201681,10.7327731 C16.9176471,10.7327731 17.3411765,10.2756303 17.3411765,9.73109244 L17.3411765,8.28235294 L18.7831933,8.28235294 C19.3243697,8.28235294 19.7815126,7.85882353 19.7815126,7.35798319 L19.7815126,5.81848739 C19.7815126,5.31764706 19.3243697,4.89411765 18.7831933,4.89411765 L17.3378151,4.89411765 L17.3378151,3.4487395 C17.3378151,2.90756303 16.9142857,2.44705882 16.4168067,2.44705882 L14.8840336,2.44705882 C14.3865546,2.44705882 13.9630252,2.90420168 13.9630252,3.4487395 L13.9630252,4.89747899 L12.5210084,4.89747899 C11.9798319,4.89747899 11.5226891,5.3210084 11.5226891,5.82184874 L11.5226891,7.36134454 C11.5260504,7.86554622 11.9831933,8.28907563 12.5210084,8.28907563 L12.5210084,8.28907563 Z" id="Cuidar_3Masa"></path>
        </g>
    </g>
</svg>

<svg width="24" height="24" viewBox="0 0 24 24" xmlns="http://www.w3.org/2000/svg"><path d="M21.738 17.98c.51-.33.53-.521.31-.938a.793.793 0 00-.972-.397l-4.642 1.614c-.058.02-.105.01-.155.02a2.17 2.17 0 01-1.14.346H9.324a.722.722 0 01-.722-.722v-.004c0-.407.319-.726.722-.726h5.819c.366 0 .76-.393.76-.773 0-.346-.202-.706-.606-.716-.087 0-.191 0-.319.01-.965.02-2.985.057-4.874-1.123-.02-.006-.985-.568-4.104-.645v5.247l5.53 2.662c.403.232.887.34 1.475.34.49 0 .914-.078 1.25-.222.03-.02 5.721-2.86 7.483-3.973zm1.6-1.593c.33.638.675 1.865-.83 2.823-1.822 1.15-7.399 3.933-7.637 4.047-.548.252-1.167.37-1.87.37-.846 0-1.57-.165-2.147-.504L6 20.783v.464c0 .945-.77 1.711-1.714 1.711H1.714A1.714 1.714 0 010 21.248V13.31c0-.948.77-1.721 1.714-1.721h2.572c.645 0 1.193.36 1.492.887 3.708.057 4.914.743 5.116.878 1.503.937 3.15.907 4.054.89.144-.01.279 0 .376-.01.568.01 1.08.252 1.436.646.366.386.588.917.588 1.519l3.254-1.13a2.225 2.225 0 012.679 1.006c.01.003.057.1.057.11zM2.975 13.832c-.501 0-.857.36-.857.86 0 .501.356.86.857.86.5 0 .857-.355.857-.86.003-.5-.353-.86-.857-.86zm12.679-.645c-4.236 0-6.572-2.34-6.572-6.592S11.415 0 15.654 0c4.238 0 6.575 2.343 6.575 6.595-.004 4.249-2.337 6.592-6.575 6.592zM12.78 6.158h1.815a.627.627 0 00.625-.629V3.708h.87v1.821c0 .347.283.626.63.629h1.814v.87H16.72a.627.627 0 00-.625.63v1.821h-.87V7.657a.627.627 0 00-.626-.628l-1.815.003-.003-.874zm-.259 2.131l1.445-.003V9.73c0 .545.424 1.002.921 1.002h1.533c.498 0 .921-.457.921-1.002V8.282h1.442c.541 0 .999-.423.999-.924v-1.54c0-.5-.458-.924-.999-.924h-1.445V3.45c0-.541-.424-1.002-.921-1.002h-1.533c-.497 0-.921.457-.921 1.002v1.448h-1.442c-.541 0-.998.424-.998.925v1.54c.003.504.46.927.998.927z" fill="#5CB615" fill-rule="nonzero"/></svg>
